1 mau trang hong.lrtemplate
s = {
	id = "3B478F75-5231-46E8-A8CD-2FC991867C16",
	internalName = "1 mau trang hong",
	title = "1 mau trang hong",
	type = "Develop",
	value = {
		settings = {
			AutoLateralCA = 0,
			Blacks2012 = 100,
			BlueHue = 0,
			BlueSaturation = 0,
			CameraProfile = "Matrix",
			ChromaticAberrationB = 0,
			ChromaticAberrationR = 0,
			Clarity2012 = -21,
			ColorNoiseReduction = 25,
			ColorNoiseReductionDetail = 50,
			ColorNoiseReductionSmoothness = 50,
			Contrast2012 = 16,
			ConvertToGrayscale = false,
			CropConstrainToWarp = 0,
			Defringe = 0,
			DefringeGreenAmount = 0,
			DefringeGreenHueHi = 60,
			DefringeGreenHueLo = 40,
			DefringePurpleAmount = 0,
			DefringePurpleHueHi = 70,
			DefringePurpleHueLo = 30,
			Dehaze = 12,
			EnableCalibration = true,
			EnableColorAdjustments = true,
			EnableDetail = true,
			EnableEffects = true,
			EnableLensCorrections = true,
			EnableSplitToning = true,
			Exposure2012 = 0.95,
			GrainAmount = 0,
			GrainFrequency = 50,
			GrainSize = 25,
			GreenHue = 0,
			GreenSaturation = 0,
			Highlights2012 = -100,
			HueAdjustmentAqua = 0,
			HueAdjustmentBlue = 0,
			HueAdjustmentGreen = 0,
			HueAdjustmentMagenta = 0,
			HueAdjustmentOrange = 11,
			HueAdjustmentPurple = 0,
			HueAdjustmentRed = 3,
			HueAdjustmentYellow = 3,
			IncrementalTemperature = -12,
			IncrementalTint = -2,
			LensManualDistortionAmount = 0,
			LuminanceAdjustmentAqua = 0,
			LuminanceAdjustmentBlue = 8,
			LuminanceAdjustmentGreen = 0,
			LuminanceAdjustmentMagenta = 0,
			LuminanceAdjustmentOrange = 21,
			LuminanceAdjustmentPurple = 0,
			LuminanceAdjustmentRed = 0,
			LuminanceAdjustmentYellow = 0,
			LuminanceNoiseReductionContrast = 0,
			LuminanceNoiseReductionDetail = 0,
			LuminanceSmoothing = 21,
			ParametricDarks = -23,
			ParametricHighlightSplit = 75,
			ParametricHighlights = 0,
			ParametricLights = 0,
			ParametricMidtoneSplit = 50,
			ParametricShadowSplit = 25,
			ParametricShadows = 0,
			PostCropVignetteAmount = -27,
			PostCropVignetteFeather = 50,
			PostCropVignetteHighlightContrast = 0,
			PostCropVignetteMidpoint = 20,
			PostCropVignetteRoundness = -17,
			PostCropVignetteStyle = 1,
			ProcessVersion = "6.7",
			RedHue = 0,
			RedSaturation = 0,
			Saturation = 5,
			SaturationAdjustmentAqua = 0,
			SaturationAdjustmentBlue = -47,
			SaturationAdjustmentGreen = -67,
			SaturationAdjustmentMagenta = 0,
			SaturationAdjustmentOrange = -29,
			SaturationAdjustmentPurple = -24,
			SaturationAdjustmentRed = -13,
			SaturationAdjustmentYellow = 0,
			ShadowTint = 0,
			Shadows2012 = 38,
			SharpenDetail = 43,
			SharpenEdgeMasking = 49,
			SharpenRadius = 1.3,
			Sharpness = 65,
			SplitToningBalance = 0,
			SplitToningHighlightHue = 215,
			SplitToningHighlightSaturation = 15,
			SplitToningShadowHue = 116,
			SplitToningShadowSaturation = 6,
			ToneCurveName2012 = "Strong Contrast",
			ToneCurvePV2012 = {
				0,
				0,
				32,
				16,
				64,
				50,
				128,
				128,
				192,
				202,
				255,
				255,
			},
			ToneCurvePV2012Blue = {
				0,
				0,
				255,
				255,
			},
			ToneCurvePV2012Green = {
				0,
				0,
				255,
				255,
			},
			ToneCurvePV2012Red = {
				0,
				0,
				255,
				255,
			},
			Vibrance = 25,
			VignetteAmount = 0,
			VignetteMidpoint = 50,
			WhiteBalance = "Custom",
			Whites2012 = -23,
		},
		uuid = "14432EEA-5909-45D6-A0A1-C0F6CCE26833",
	},
	version = 0,
}
