A Summer Affair.lrtemplate
s = {
	id = "66F45881-EA38-4C68-BD03-8312D21954CF",
	internalName = "A Summer Affair",
	title = "A Summer Affair",
	type = "Develop",
	value = {
		settings = {
			AutoLateralCA = 0,
			Blacks2012 = 25,
			BlueHue = 0,
			BlueSaturation = 0,
			CameraProfile = "Adobe Standard",
			ChromaticAberrationB = 0,
			ChromaticAberrationR = 0,
			Clarity2012 = 16,
			ColorNoiseReduction = 25,
			ColorNoiseReductionDetail = 50,
			Contrast2012 = -25,
			ConvertToGrayscale = false,
			CropConstrainToWarp = 0,
			Defringe = 0,
			DefringeGreenAmount = 0,
			DefringeGreenHueHi = 60,
			DefringeGreenHueLo = 40,
			DefringePurpleAmount = 0,
			DefringePurpleHueHi = 70,
			DefringePurpleHueLo = 30,
			EnableCalibration = true,
			EnableColorAdjustments = true,
			EnableDetail = true,
			EnableEffects = true,
			EnableGradientBasedCorrections = true,
			EnableLensCorrections = true,
			EnableSplitToning = true,
			Exposure2012 = 0.35,
			GradientBasedCorrections = {
				{
					CorrectionActive = true,
					CorrectionAmount = 1,
					CorrectionID = "A289AB3D-D5F2-4ECB-92C2-8A64160EBC04",
					CorrectionMasks = {
						{
							FullX = 0.558312,
							FullY = 0.450774,
							MaskID = "1F42AA34-B271-4F9F-BC36-5F95C5A1067F",
							MaskValue = 1,
							What = "Mask/Gradient",
							ZeroX = 0.558312,
							ZeroY = 0.846453,
						},
					},
					CorrectionReferenceX = 0.558312,
					CorrectionReferenceY = 0.648613,
					LocalBrightness = -0.6,
					LocalClarity = 1,
					LocalContrast = 0,
					LocalExposure = 0,
					LocalSaturation = 0.52809,
					LocalSharpness = 0,
					LocalToningHue = 0,
					LocalToningSaturation = 0,
					What = "Correction",
				},
			},
			GrainAmount = 0,
			GrainFrequency = 50,
			GrainSize = 25,
			GreenHue = 0,
			GreenSaturation = 0,
			Highlights2012 = 0,
			HueAdjustmentAqua = 8,
			HueAdjustmentBlue = 3,
			HueAdjustmentGreen = 5,
			HueAdjustmentMagenta = 0,
			HueAdjustmentOrange = 0,
			HueAdjustmentPurple = 0,
			HueAdjustmentRed = -12,
			HueAdjustmentYellow = 2,
			LensManualDistortionAmount = 0,
			LensProfileChromaticAberrationScale = 100,
			LensProfileDigest = "0F4AF8DE5108827256319C3F896103A1",
			LensProfileDistortionScale = 100,
			LensProfileEnable = 1,
			LensProfileFilename = "Canon EOS 50D (Canon EF-S 10-22mm f3.5-4.5 USM).lcp",
			LensProfileName = "Adobe (Canon EF-S 10-22mm f/3.5-4.5 USM)",
			LensProfileSetup = "Custom",
			LensProfileVignettingScale = 100,
			LuminanceAdjustmentAqua = 4,
			LuminanceAdjustmentBlue = 3,
			LuminanceAdjustmentGreen = 0,
			LuminanceAdjustmentMagenta = 0,
			LuminanceAdjustmentOrange = 0,
			LuminanceAdjustmentPurple = 0,
			LuminanceAdjustmentRed = -2,
			LuminanceAdjustmentYellow = 0,
			LuminanceNoiseReductionContrast = 23,
			LuminanceNoiseReductionDetail = 32,
			LuminanceSmoothing = 40,
			ParametricDarks = 0,
			ParametricHighlightSplit = 75,
			ParametricHighlights = 0,
			ParametricLights = 0,
			ParametricMidtoneSplit = 50,
			ParametricShadowSplit = 25,
			ParametricShadows = 0,
			PerspectiveHorizontal = 0,
			PerspectiveRotate = 0,
			PerspectiveScale = 100,
			PerspectiveVertical = 0,
			PostCropVignetteAmount = -41,
			PostCropVignetteFeather = 85,
			PostCropVignetteHighlightContrast = 0,
			PostCropVignetteMidpoint = 69,
			PostCropVignetteRoundness = -19,
			PostCropVignetteStyle = 1,
			ProcessVersion = "6.7",
			RedHue = 0,
			RedSaturation = 0,
			Saturation = 4,
			SaturationAdjustmentAqua = 7,
			SaturationAdjustmentBlue = 18,
			SaturationAdjustmentGreen = 12,
			SaturationAdjustmentMagenta = 0,
			SaturationAdjustmentOrange = 0,
			SaturationAdjustmentPurple = 0,
			SaturationAdjustmentRed = -23,
			SaturationAdjustmentYellow = 1,
			ShadowTint = 0,
			Shadows2012 = 41,
			SharpenDetail = 32,
			SharpenEdgeMasking = 23,
			SharpenRadius = 1,
			Sharpness = 46,
			SplitToningBalance = 0,
			SplitToningHighlightHue = 0,
			SplitToningHighlightSaturation = 0,
			SplitToningShadowHue = 0,
			SplitToningShadowSaturation = 0,
			ToneCurveName2012 = "Linear",
			ToneCurvePV2012 = {
				0,
				0,
				255,
				255,
			},
			ToneCurvePV2012Blue = {
				0,
				0,
				255,
				255,
			},
			ToneCurvePV2012Green = {
				0,
				0,
				255,
				255,
			},
			ToneCurvePV2012Red = {
				0,
				0,
				255,
				255,
			},
			Vibrance = 21,
			VignetteAmount = 0,
			VignetteMidpoint = 50,
			WhiteBalance = "As Shot",
			Whites2012 = 19,
			orientation = "AB",
		},
		uuid = "4B8E40B4-1EB6-45EC-84F3-59F0850B57E9",
	},
	version = 0,
}
