Drew Love.lrtemplate
s = {
	id = "C80BA322-1839-4695-B360-99DD4866C2E1",
	internalName = "Drew Love",
	title = "Drew Love",
	type = "Develop",
	value = {
		settings = {
			Blacks2012 = 10,
			BlueHue = -10,
			BlueSaturation = -10,
			CameraProfile = "Adobe Standard",
			Clarity2012 = -10,
			Contrast2012 = -14,
			ConvertToGrayscale = false,
			EnableCalibration = true,
			EnableColorAdjustments = true,
			EnableEffects = true,
			EnableSplitToning = true,
			Exposure2012 = 0,
			GrainAmount = 21,
			GrainFrequency = 85,
			GrainSize = 25,
			GreenHue = 55,
			GreenSaturation = -20,
			Highlights2012 = -56,
			HueAdjustmentAqua = 10,
			HueAdjustmentBlue = -10,
			HueAdjustmentGreen = 0,
			HueAdjustmentMagenta = 0,
			HueAdjustmentOrange = 0,
			HueAdjustmentPurple = 0,
			HueAdjustmentRed = 15,
			HueAdjustmentYellow = 5,
			LuminanceAdjustmentAqua = 15,
			LuminanceAdjustmentBlue = -25,
			LuminanceAdjustmentGreen = 0,
			LuminanceAdjustmentMagenta = 0,
			LuminanceAdjustmentOrange = -5,
			LuminanceAdjustmentPurple = -15,
			LuminanceAdjustmentRed = -25,
			LuminanceAdjustmentYellow = 10,
			ParametricDarks = 10,
			ParametricHighlightSplit = 72,
			ParametricHighlights = 15,
			ParametricLights = 14,
			ParametricMidtoneSplit = 44,
			ParametricShadowSplit = 19,
			ParametricShadows = 30,
			PostCropVignetteAmount = -14,
			PostCropVignetteFeather = 50,
			PostCropVignetteHighlightContrast = 0,
			PostCropVignetteMidpoint = 50,
			PostCropVignetteRoundness = 0,
			PostCropVignetteStyle = 1,
			ProcessVersion = "6.7",
			RedHue = 30,
			RedSaturation = 30,
			Saturation = -15,
			SaturationAdjustmentAqua = -35,
			SaturationAdjustmentBlue = -25,
			SaturationAdjustmentGreen = -30,
			SaturationAdjustmentMagenta = -30,
			SaturationAdjustmentOrange = -10,
			SaturationAdjustmentPurple = -45,
			SaturationAdjustmentRed = -20,
			SaturationAdjustmentYellow = -5,
			ShadowTint = -4,
			Shadows2012 = 30,
			SplitToningBalance = 75,
			SplitToningHighlightHue = 0,
			SplitToningHighlightSaturation = 0,
			SplitToningShadowHue = 240,
			SplitToningShadowSaturation = 0,
			ToneCurveName2012 = "Custom",
			ToneCurvePV2012 = {
				0,
				48,
				77,
				76,
				133,
				133,
				189,
				187,
				255,
				245,
			},
			ToneCurvePV2012Blue = {
				0,
				0,
				80,
				49,
				121,
				119,
				174,
				194,
				255,
				255,
			},
			ToneCurvePV2012Green = {
				0,
				0,
				32,
				11,
				114,
				120,
				178,
				200,
				255,
				255,
			},
			ToneCurvePV2012Red = {
				0,
				0,
				30,
				16,
				75,
				64,
				113,
				122,
				174,
				197,
				255,
				255,
			},
			Vibrance = 0,
			WhiteBalance = "As Shot",
			Whites2012 = -20,
		},
		uuid = "631D19C9-3F83-4AB2-966C-2C389E38A27C",
	},
	version = 0,
}
