JAV.lrtemplate
s = {
	id = "B0DF3024-678E-4F66-8880-18281D16CAA9",
	internalName = "JAV",
	title = "JAV",
	type = "Develop",
	value = {
		settings = {
			AutoLateralCA = 0,
			Blacks2012 = 0,
			BlueHue = 0,
			BlueSaturation = 23,
			CameraProfile = "Adobe Standard",
			ChromaticAberrationB = 0,
			ChromaticAberrationR = 0,
			Clarity2012 = -9,
			ColorNoiseReduction = 25,
			ColorNoiseReductionDetail = 50,
			ColorNoiseReductionSmoothness = 50,
			Contrast2012 = 10,
			ConvertToGrayscale = false,
			CropConstrainToWarp = 0,
			Defringe = 0,
			DefringeGreenAmount = 0,
			DefringeGreenHueHi = 60,
			DefringeGreenHueLo = 40,
			DefringePurpleAmount = 0,
			DefringePurpleHueHi = 70,
			DefringePurpleHueLo = 30,
			EnableCalibration = true,
			EnableCircularGradientBasedCorrections = true,
			EnableColorAdjustments = true,
			EnableDetail = true,
			EnableEffects = true,
			EnableGradientBasedCorrections = true,
			EnableLensCorrections = true,
			EnableSplitToning = true,
			Exposure2012 = 0.1,
			GrainAmount = 0,
			GrainFrequency = 50,
			GrainSize = 25,
			GreenHue = -3,
			GreenSaturation = 0,
			Highlights2012 = -26,
			HueAdjustmentAqua = 41,
			HueAdjustmentBlue = 5,
			HueAdjustmentGreen = -20,
			HueAdjustmentMagenta = 0,
			HueAdjustmentOrange = 11,
			HueAdjustmentPurple = -61,
			HueAdjustmentRed = 6,
			HueAdjustmentYellow = 20,
			LensManualDistortionAmount = 0,
			LensProfileEnable = 1,
			LensProfileSetup = "LensDefaults",
			LuminanceAdjustmentAqua = 0,
			LuminanceAdjustmentBlue = 33,
			LuminanceAdjustmentGreen = -7,
			LuminanceAdjustmentMagenta = 0,
			LuminanceAdjustmentOrange = 20,
			LuminanceAdjustmentPurple = 0,
			LuminanceAdjustmentRed = 0,
			LuminanceAdjustmentYellow = 0,
			LuminanceNoiseReductionContrast = 0,
			LuminanceNoiseReductionDetail = 50,
			LuminanceSmoothing = 19,
			ParametricDarks = 27,
			ParametricHighlightSplit = 75,
			ParametricHighlights = -15,
			ParametricLights = -7,
			ParametricMidtoneSplit = 50,
			ParametricShadowSplit = 25,
			ParametricShadows = -15,
			PerspectiveAspect = 0,
			PerspectiveHorizontal = 0,
			PerspectiveRotate = 0,
			PerspectiveScale = 100,
			PerspectiveUpright = 0,
			PerspectiveVertical = 0,
			PostCropVignetteAmount = 0,
			PostCropVignetteFeather = 50,
			PostCropVignetteHighlightContrast = 0,
			PostCropVignetteMidpoint = 50,
			PostCropVignetteRoundness = 0,
			PostCropVignetteStyle = 1,
			ProcessVersion = "6.7",
			RedHue = 0,
			RedSaturation = -11,
			Saturation = -7,
			SaturationAdjustmentAqua = -26,
			SaturationAdjustmentBlue = 3,
			SaturationAdjustmentGreen = -38,
			SaturationAdjustmentMagenta = -40,
			SaturationAdjustmentOrange = -23,
			SaturationAdjustmentPurple = -42,
			SaturationAdjustmentRed = -14,
			SaturationAdjustmentYellow = -34,
			ShadowTint = 0,
			Shadows2012 = 62,
			SharpenDetail = 9,
			SharpenEdgeMasking = 36,
			SharpenRadius = 1,
			Sharpness = 51,
			SplitToningBalance = 0,
			SplitToningHighlightHue = 211,
			SplitToningHighlightSaturation = 10,
			SplitToningShadowHue = 51,
			SplitToningShadowSaturation = 9,
			Temperature = 5691,
			Tint = 17,
			ToneCurveName2012 = "Linear",
			ToneCurvePV2012 = {
				0,
				0,
				255,
				255,
			},
			ToneCurvePV2012Blue = {
				0,
				0,
				255,
				255,
			},
			ToneCurvePV2012Green = {
				0,
				0,
				255,
				255,
			},
			ToneCurvePV2012Red = {
				0,
				0,
				255,
				255,
			},
			Vibrance = 24,
			VignetteAmount = 0,
			VignetteMidpoint = 50,
			WhiteBalance = "Custom",
			Whites2012 = -29,
			orientation = "AB",
		},
		uuid = "89B9AABA-66FD-4B1C-92B3-5244A433295E",
	},
	version = 0,
}
