màu-trong.xmp
<x:xmpmeta xmlns:x="adobe:ns:meta/" x:xmptk="Adobe XMP Core 5.6-c140 79.160451, 2017/05/06-01:08:21        ">
 <rdf:RDF xmlns:rdf="http://www.w3.org/1999/02/22-rdf-syntax-ns#">
  <rdf:Description rdf:about=""
    xmlns:crs="http://ns.adobe.com/camera-raw-settings/1.0/"
   crs:Version="12.0"
   crs:ProcessVersion="11.0"
   crs:WhiteBalance="Custom"
   crs:Temperature="4913"
   crs:Tint="+11"
   crs:Saturation="0"
   crs:Sharpness="0"
   crs:LuminanceSmoothing="0"
   crs:ColorNoiseReduction="25"
   crs:VignetteAmount="0"
   crs:ShadowTint="0"
   crs:RedHue="+13"
   crs:RedSaturation="0"
   crs:GreenHue="+28"
   crs:GreenSaturation="0"
   crs:BlueHue="0"
   crs:BlueSaturation="0"
   crs:Vibrance="+7"
   crs:HueAdjustmentRed="0"
   crs:HueAdjustmentOrange="0"
   crs:HueAdjustmentYellow="-35"
   crs:HueAdjustmentGreen="+7"
   crs:HueAdjustmentAqua="0"
   crs:HueAdjustmentBlue="0"
   crs:HueAdjustmentPurple="0"
   crs:HueAdjustmentMagenta="0"
   crs:SaturationAdjustmentRed="+11"
   crs:SaturationAdjustmentOrange="0"
   crs:SaturationAdjustmentYellow="-13"
   crs:SaturationAdjustmentGreen="+9"
   crs:SaturationAdjustmentAqua="0"
   crs:SaturationAdjustmentBlue="0"
   crs:SaturationAdjustmentPurple="0"
   crs:SaturationAdjustmentMagenta="0"
   crs:LuminanceAdjustmentRed="0"
   crs:LuminanceAdjustmentOrange="+16"
   crs:LuminanceAdjustmentYellow="0"
   crs:LuminanceAdjustmentGreen="0"
   crs:LuminanceAdjustmentAqua="0"
   crs:LuminanceAdjustmentBlue="0"
   crs:LuminanceAdjustmentPurple="0"
   crs:LuminanceAdjustmentMagenta="0"
   crs:SplitToningShadowHue="199"
   crs:SplitToningShadowSaturation="0"
   crs:SplitToningHighlightHue="73"
   crs:SplitToningHighlightSaturation="8"
   crs:SplitToningBalance="0"
   crs:ParametricShadows="0"
   crs:ParametricDarks="0"
   crs:ParametricLights="0"
   crs:ParametricHighlights="0"
   crs:ParametricShadowSplit="25"
   crs:ParametricMidtoneSplit="50"
   crs:ParametricHighlightSplit="75"
   crs:SharpenRadius="+1.0"
   crs:SharpenDetail="25"
   crs:SharpenEdgeMasking="0"
   crs:PostCropVignetteAmount="0"
   crs:GrainAmount="0"
   crs:ColorNoiseReductionDetail="50"
   crs:ColorNoiseReductionSmoothness="50"
   crs:LensProfileEnable="1"
   crs:LensManualDistortionAmount="0"
   crs:PerspectiveVertical="0"
   crs:PerspectiveHorizontal="0"
   crs:PerspectiveRotate="0.0"
   crs:PerspectiveScale="100"
   crs:PerspectiveAspect="0"
   crs:PerspectiveUpright="0"
   crs:PerspectiveX="0.00"
   crs:PerspectiveY="0.00"
   crs:AutoLateralCA="1"
   crs:Exposure2012="-0.40"
   crs:Contrast2012="+18"
   crs:Highlights2012="-78"
   crs:Shadows2012="+37"
   crs:Whites2012="-28"
   crs:Blacks2012="-3"
   crs:Clarity2012="-7"
   crs:DefringePurpleAmount="0"
   crs:DefringePurpleHueLo="30"
   crs:DefringePurpleHueHi="70"
   crs:DefringeGreenAmount="0"
   crs:DefringeGreenHueLo="40"
   crs:DefringeGreenHueHi="60"
   crs:Dehaze="+38"
   crs:Texture="-13"
   crs:OverrideLookVignette="False"
   crs:ToneCurveName2012="Linear"
   crs:LensProfileSetup="LensDefaults"
   crs:HasSettings="True"
   crs:HasCrop="False"
   crs:AsShotTemperature="5050"
   crs:AsShotTint="5">
   <crs:ToneCurvePV2012>
    <rdf:Seq>
     <rdf:li>0, 0</rdf:li>
     <rdf:li>255, 255</rdf:li>
    </rdf:Seq>
   </crs:ToneCurvePV2012>
   <crs:ToneCurvePV2012Red>
    <rdf:Seq>
     <rdf:li>0, 0</rdf:li>
     <rdf:li>255, 255</rdf:li>
    </rdf:Seq>
   </crs:ToneCurvePV2012Red>
   <crs:ToneCurvePV2012Green>
    <rdf:Seq>
     <rdf:li>0, 0</rdf:li>
     <rdf:li>255, 255</rdf:li>
    </rdf:Seq>
   </crs:ToneCurvePV2012Green>
   <crs:ToneCurvePV2012Blue>
    <rdf:Seq>
     <rdf:li>0, 0</rdf:li>
     <rdf:li>255, 255</rdf:li>
    </rdf:Seq>
   </crs:ToneCurvePV2012Blue>
   <crs:Look>
    <rdf:Description
     crs:Name="Adobe Color"
     crs:Amount="1.000000"
     crs:UUID="B952C231111CD8E0ECCF14B86BAA7077"
     crs:SupportsAmount="false"
     crs:SupportsMonochrome="false"
     crs:SupportsOutputReferred="false"
     crs:Copyright="© 2018 Adobe Systems, Inc.">
    <crs:Group>
     <rdf:Alt>
      <rdf:li xml:lang="x-default">Profiles</rdf:li>
     </rdf:Alt>
    </crs:Group>
    <crs:Parameters>
     <rdf:Description
      crs:Version="12.0"
      crs:ProcessVersion="11.0"
      crs:ConvertToGrayscale="False"
      crs:CameraProfile="Adobe Standard"
      crs:LookTable="E1095149FDB39D7A057BAB208837E2E1">
     <crs:ToneCurvePV2012>
      <rdf:Seq>
       <rdf:li>0, 0</rdf:li>
       <rdf:li>22, 16</rdf:li>
       <rdf:li>40, 35</rdf:li>
       <rdf:li>127, 127</rdf:li>
       <rdf:li>224, 230</rdf:li>
       <rdf:li>240, 246</rdf:li>
       <rdf:li>255, 255</rdf:li>
      </rdf:Seq>
     </crs:ToneCurvePV2012>
     <crs:ToneCurvePV2012Red>
      <rdf:Seq>
       <rdf:li>0, 0</rdf:li>
       <rdf:li>255, 255</rdf:li>
      </rdf:Seq>
     </crs:ToneCurvePV2012Red>
     <crs:ToneCurvePV2012Green>
      <rdf:Seq>
       <rdf:li>0, 0</rdf:li>
       <rdf:li>255, 255</rdf:li>
      </rdf:Seq>
     </crs:ToneCurvePV2012Green>
     <crs:ToneCurvePV2012Blue>
      <rdf:Seq>
       <rdf:li>0, 0</rdf:li>
       <rdf:li>255, 255</rdf:li>
      </rdf:Seq>
     </crs:ToneCurvePV2012Blue>
     </rdf:Description>
    </crs:Parameters>
    </rdf:Description>
   </crs:Look>
  </rdf:Description>
 </rdf:RDF>
</x:xmpmeta>
