Presetpro.com - Movie Star.lrtemplate
s = {
	id = "FD6CCC1D-526C-4759-BFC6-BE3C82F5BD7E",
	internalName = "Presetpro.com - Movie Star",
	title = "Presetpro.com - Movie Star",
	type = "Develop",
	value = {
		settings = {
			AutoLateralCA = 0,
			Blacks2012 = -11,
			BlueHue = 0,
			BlueSaturation = 0,
			CameraProfile = "Adobe Standard",
			ChromaticAberrationB = 0,
			ChromaticAberrationR = 0,
			Clarity2012 = 48,
			ColorNoiseReduction = 25,
			ColorNoiseReductionDetail = 50,
			ColorNoiseReductionSmoothness = 50,
			Contrast2012 = 39,
			ConvertToGrayscale = false,
			CropConstrainToWarp = 0,
			Defringe = 0,
			DefringeGreenAmount = 0,
			DefringeGreenHueHi = 60,
			DefringeGreenHueLo = 40,
			DefringePurpleAmount = 0,
			DefringePurpleHueHi = 70,
			DefringePurpleHueLo = 30,
			EnableCalibration = true,
			EnableCircularGradientBasedCorrections = true,
			EnableColorAdjustments = true,
			EnableDetail = true,
			EnableEffects = true,
			EnableGradientBasedCorrections = true,
			EnableLensCorrections = true,
			EnableSplitToning = true,
			Exposure2012 = 0,
			GradientBasedCorrections = {
				{
					CorrectionActive = true,
					CorrectionAmount = 1,
					CorrectionID = "8F7908EF-39F8-4F98-AC2C-B4D98E8CF5ED",
					CorrectionMasks = {
						{
							FullX = 1.11664,
							FullY = 1.01911,
							MaskID = "EC2D02C0-277F-4737-B774-FD28465C5A11",
							MaskValue = 1,
							What = "Mask/Gradient",
							ZeroX = 1.11664,
							ZeroY = 1.02293,
						},
					},
					CorrectionReferenceX = 1.11664,
					CorrectionReferenceY = 1.02102,
					LocalBrightness = 0,
					LocalClarity = 0,
					LocalClarity2012 = 0,
					LocalContrast = 0,
					LocalContrast2012 = 0,
					LocalDefringe = 0,
					LocalExposure = 0,
					LocalExposure2012 = 0.008224,
					LocalHighlights2012 = 0,
					LocalLuminanceNoise = 0,
					LocalMoire = 0,
					LocalSaturation = 0,
					LocalShadows2012 = 0,
					LocalSharpness = 0,
					LocalTemperature = 0,
					LocalTint = 0,
					LocalToningHue = 240,
					LocalToningSaturation = 0,
					What = "Correction",
				},
			},
			GrainAmount = 0,
			GrainFrequency = 50,
			GrainSize = 25,
			GreenHue = 0,
			GreenSaturation = 0,
			Highlights2012 = 24,
			HueAdjustmentAqua = 0,
			HueAdjustmentBlue = 0,
			HueAdjustmentGreen = 0,
			HueAdjustmentMagenta = 0,
			HueAdjustmentOrange = 0,
			HueAdjustmentPurple = 0,
			HueAdjustmentRed = 0,
			HueAdjustmentYellow = 0,
			IncrementalTemperature = 5,
			IncrementalTint = 0,
			LensManualDistortionAmount = 0,
			LensProfileEnable = 0,
			LensProfileSetup = "LensDefaults",
			LuminanceAdjustmentAqua = 0,
			LuminanceAdjustmentBlue = 0,
			LuminanceAdjustmentGreen = 0,
			LuminanceAdjustmentMagenta = 0,
			LuminanceAdjustmentOrange = -11,
			LuminanceAdjustmentPurple = 0,
			LuminanceAdjustmentRed = 0,
			LuminanceAdjustmentYellow = -14,
			LuminanceNoiseReductionContrast = 0,
			LuminanceNoiseReductionDetail = 60,
			LuminanceSmoothing = 30,
			ParametricDarks = 52,
			ParametricHighlightSplit = 90,
			ParametricHighlights = 0,
			ParametricLights = 0,
			ParametricMidtoneSplit = 59,
			ParametricShadowSplit = 10,
			ParametricShadows = 0,
			PerspectiveAspect = 0,
			PerspectiveHorizontal = 0,
			PerspectiveRotate = 0,
			PerspectiveScale = 100,
			PerspectiveUpright = 0,
			PerspectiveVertical = 0,
			PostCropVignetteAmount = -12,
			PostCropVignetteFeather = 50,
			PostCropVignetteHighlightContrast = 0,
			PostCropVignetteMidpoint = 50,
			PostCropVignetteRoundness = 0,
			PostCropVignetteStyle = 1,
			ProcessVersion = "6.7",
			RedHue = 0,
			RedSaturation = 0,
			Saturation = 0,
			SaturationAdjustmentAqua = -15,
			SaturationAdjustmentBlue = -15,
			SaturationAdjustmentGreen = -10,
			SaturationAdjustmentMagenta = -15,
			SaturationAdjustmentOrange = -10,
			SaturationAdjustmentPurple = -15,
			SaturationAdjustmentRed = -10,
			SaturationAdjustmentYellow = -14,
			ShadowTint = 0,
			Shadows2012 = -16,
			SharpenDetail = 25,
			SharpenEdgeMasking = 0,
			SharpenRadius = 1,
			Sharpness = 69,
			SplitToningBalance = 8,
			SplitToningHighlightHue = 54,
			SplitToningHighlightSaturation = 19,
			SplitToningShadowHue = 215,
			SplitToningShadowSaturation = 18,
			ToneCurveName2012 = "Custom",
			ToneCurvePV2012 = {
				0,
				33,
				59,
				66,
				126,
				131,
				192,
				201,
				255,
				255,
			},
			ToneCurvePV2012Blue = {
				0,
				3,
				255,
				255,
			},
			ToneCurvePV2012Green = {
				0,
				0,
				255,
				255,
			},
			ToneCurvePV2012Red = {
				0,
				0,
				255,
				255,
			},
			Vibrance = 23,
			VignetteAmount = -51,
			VignetteMidpoint = 15,
			WhiteBalance = "Custom",
			Whites2012 = -70,
			orientation = "AB",
		},
		uuid = "7F6EFC0D-CAF4-439D-A51C-5CDAEFF8D71D",
	},
	version = 0,
}
